X: 829
T: Miss Brown's fancy
C: anon.
O: Ireland
B: Francis O'Neill: "The Dance Music of Ireland" (1907) no. 829
R: hornpipe
Z: Transcribed by Frank Nordberg - http://www.musicaviva.com
F: http://www.musicaviva.com/abc/tunes/ireland/oneill-1001/oneill-1001-082
9.abc
M: C|
L: 1/8
K: D
(3AGE | D2 D2 DFAF | dFAF dFAF | E2 (EF) GBEB | edcB AGFE |\
 D2 D2 DFAF | dFAF GFED | DFAg faec | e2 d2 d2 :|
|: ag | (fd) (3ddd fdad | fd (3efg a2 (ed) | (cA) (3AAA (ce)Ae |  cdef g2
 (eg) |\
(fd) (3ddd fdad | (fd) (3efg a2 (gf) | gbag fedc | e2 d2 d2 :|
W:
W:
W: From Musica Viva - http://www.musicaviva.com
W: the Internet center for free sheet music downloads.


